data/zain.svg

<svg width="21.406" height="19.6" viewBox="0 0 21.406 19.6" xmlns="http://www.w3.org/2000/svg"><path transform="translate(0 12.6) scale(.014 -.014)" d="m124 71h245q23 0 34-12t11-32v-16q0-11-12-11h-361q-8 0-8 9v42q0 11 3 18.5t10 18.5l282 397h-280q-8 0-8 9v53q0 9 8 9h308q25 0 40.5-11t15.5-40v-13q0-17-13-37z"/><path transform="translate(6.286 12.6) scale(.014 -.014)" d="m331 52q-22-31-53-46t-69-15q-55 0-93.5 26t-58.5 70-20 97q0 56 22 99.5t61.5 68.5 91.5 25q42 0 73.5-16t49.5-42q5 26 20 37.5t38 11.5h5q7 0 7-9v-350q0-9-7-9h-59q-8 0-8 9zm-111 9q25 0 50.5 10.5t43 37.5 17.5 75q0 49-17.5 75.5t-42.5 36.5-48 10q-43 0-76-30t-33-92q0-45 16.5-72t41-39 48.5-12z"/><path transform="translate(12.712 12.6) scale(.014 -.014)" d="m46 467q0 20 13 33t32 13q18 0 31-13t13-33q0-19-13-32t-31-13q-19 0-32 13t-13 32zm15-467q-8 0-8 9v350q0 9 8 9h5q29 0 45.5-17t16.5-52v-290q0-9-8-9z"/><path transform="translate(15.232 12.6) scale(.014 -.014)" d="m124 318q16 25 46 41.5t70 16.5q70 0 110-43t40-117v-207q0-9-8-9h-59q-8 0-8 9v193q0 53-25 79t-67 26q-45 0-71-26.5t-26-82.5v-189q0-9-7-9h-59q-8 0-8 9v350q0 9 8 9h5q23 0 39-13t20-37z"/></svg>

<?xml version="1.0" encoding="utf-8" ?>
<svg baseProfile="tiny" height="100%" version="1.2" width="100%" xmlns="http://www.w3.org/2000/svg" xmlns:ev="http://www.w3.org/2001/xml-events" xmlns:xlink="http://www.w3.org/1999/xlink"><defs /><g><path d="M124 71H369Q392 71 403.0 59.0Q414 47 414 27V11Q414 0 402 0H41Q33 0 33 9V51Q33 62 36.0 69.5Q39 77 46 88L328 485H48Q40 485 40 494V547Q40 556 48 556H356Q381 556 396.5 545.0Q412 534 412 505V492Q412 475 399 455Z" transform="translate(0.0, 72) scale(0.072, -0.072)" /><path d="M331 52Q309 21 278.0 6.0Q247 -9 209 -9Q154 -9 115.5 17.0Q77 43 57.0 87.0Q37 131 37 184Q37 240 59.0 283.5Q81 327 120.5 352.0Q160 377 212 377Q254 377 285.5 361.0Q317 345 335 319Q340 345 355.0 356.5Q370 368 393 368H398Q405 368 405 359V9Q405 0 398 0H339Q331 0 331 9ZM220 61Q245 61 270.5 71.5Q296 82 313.5 109.0Q331 136 331 184Q331 233 313.5 259.5Q296 286 271.0 296.0Q246 306 223 306Q180 306 147.0 276.0Q114 246 114 184Q114 139 130.5 112.0Q147 85 171.5 73.0Q196 61 220 61Z" transform="translate(32.327999999999996, 72) scale(0.072, -0.072)" /><path d="M46 467Q46 487 59.0 500.0Q72 513 91 513Q109 513 122.0 500.0Q135 487 135 467Q135 448 122.0 435.0Q109 422 91 422Q72 422 59.0 435.0Q46 448 46 467ZM61 0Q53 0 53 9V359Q53 368 61 368H66Q95 368 111.5 351.0Q128 334 128 299V9Q128 0 120 0Z" transform="translate(65.37599999999999, 72) scale(0.072, -0.072)" /><path d="M124 318Q140 343 170.0 359.5Q200 376 240 376Q310 376 350.0 333.0Q390 290 390 216V9Q390 0 382 0H323Q315 0 315 9V202Q315 255 290.0 281.0Q265 307 223 307Q178 307 152.0 280.5Q126 254 126 198V9Q126 0 119 0H60Q52 0 52 9V359Q52 368 60 368H65Q88 368 104.0 355.0Q120 342 124 318Z" transform="translate(78.33599999999998, 72) scale(0.072, -0.072)" /></g></svg>
